dist/assets/images/apartment-compas.svg

<svg width="121" height="124" viewBox="0 0 121 124" xmlns="http://www.w3.org/2000/svg"><title>Group 10</title><g fill-rule="evenodd"><g transform="translate(26 19)"><path d="M72.08 35.86a1.029 1.029 0 1 0-.003 2.06 1.029 1.029 0 0 0 .003-2.06z"/><ellipse cx="69.32" cy="23.09" rx=".67" ry=".67"/><path d="M69.32 49.9c-.37 0-.67.31-.67.67a.67.67 0 0 0 1.34 0c0-.36-.301-.67-.67-.67zm-7.56-36.82c.561 0 1.03-.46 1.03-1.03 0-.56-.47-1.03-1.03-1.03-.57 0-1.029.471-1.029 1.03-.001.57.458 1.03 1.029 1.03zm0 47.63a1.026 1.026 0 1 0 0 2.05c.561 0 1.03-.46 1.03-1.029 0-.561-.47-1.021-1.03-1.021zM50.721 5.28c.369 0 .67-.3.67-.67 0-.36-.301-.67-.67-.67a.677.677 0 0 0-.671.67c0 .37.3.67.671.67z"/><circle cx="50.721" cy="69.17" r=".67"/><path d="M36.92 2.76c.56 0 1.03-.46 1.03-1.029 0-.561-.47-1.021-1.03-1.021-.57 0-1.03.46-1.03 1.021 0 .569.46 1.029 1.03 1.029zm0 68.14a1.029 1.029 0 1 0 0 2.059c.56 0 1.03-.46 1.03-1.03 0-.559-.47-1.029-1.03-1.029zM23.24 5.28c.37 0 .67-.3.67-.67 0-.36-.3-.67-.67-.67-.37 0-.67.31-.67.67 0 .37.3.67.67.67z"/><ellipse cx="23.24" cy="69.17" rx=".67" ry=".67"/><path d="M12.2 13.08c.56 0 1.03-.46 1.03-1.03 0-.56-.47-1.03-1.03-1.03-.57 0-1.03.471-1.03 1.03 0 .57.46 1.03 1.03 1.03zm0 47.63c-.57 0-1.03.46-1.03 1.021 0 .569.46 1.029 1.03 1.029.56 0 1.03-.46 1.03-1.029 0-.561-.47-1.021-1.03-1.021zm57.191-23.75a.25.25 0 0 0-.211-.25l-3.65-.58c-.199-7.61-3.329-14.45-8.309-19.45-.011-.02-.011-.05-.031-.06-.01-.021-.039-.021-.049-.03A28.563 28.563 0 0 0 37.68 8.28l-.58-3.65a.246.246 0 0 0-.24-.21h-.01c-.12 0-.22.09-.24.22l-.57 3.641c-7.56.229-14.37 3.35-19.34 8.31-.02.01-.04.01-.06.03-.02.01-.02.04-.03.06-4.98 5-8.11 11.84-8.31 19.45l-3.64.58a.241.241 0 0 0-.21.25c0 .12.09.22.21.24l3.64.569c.23 7.561 3.35 14.36 8.31 19.341.01.02.01.04.03.06.01.021.04.01.05.021 4.98 4.96 11.78 8.079 19.34 8.31l.58 3.77c.02.12.12.211.24.211h.01c.12 0 .22-.091.24-.211l.6-3.76c7.6-.21 14.44-3.34 19.44-8.319.02-.011.039 0 .049-.021.021-.02.021-.04.031-.06 4.959-4.98 8.079-11.78 8.309-19.341l3.641-.571c.13-.02.221-.12.221-.24zM35.96 8.79l-1.33 8.62c-3.81.439-7.36 1.97-10.31 4.43l-7.1-5.06a28.046 28.046 0 0 1 18.74-7.99zM20.12 29.71l6.31 1.1 1.55 2.181-2.74.43-5.12-3.711zm4.42 3.83l-6.61 1.05c.21-1.71.64-3.359 1.28-4.92l5.33 3.87zm-5.08-4.46c.69-1.54 1.59-3 2.68-4.33l3.88 5.48-6.56-1.15zm-.71-9.98l13.18 13.26-3.4.54-9.78-13.8zm6 3.05a18.773 18.773 0 0 1 4.34-2.7l1.17 6.63-5.51-3.93zm6.09 4.34l-1.11-6.271 3.67 5.061-.42 2.739-2.14-1.529zm-1.22-7.27c1.57-.649 3.22-1.09 4.93-1.3l-1.04 6.66-3.89-5.36zM16.8 17.21l5.04 7.12a19.5 19.5 0 0 0-4.42 10.34L8.8 36.05c.22-7.35 3.23-13.97 8-18.84zM8.81 37.85l8.62 1.33c.44 3.811 1.97 7.36 4.43 10.311l-5.06 7.09A28.005 28.005 0 0 1 8.81 37.85zm20.92 15.84l1.13-6.37-.04-.011 2.16-1.54.44 2.841-3.69 5.08zm3.79-4.38l1.02 6.551c-1.68-.2-3.31-.63-4.85-1.261l3.83-5.29zm-4.41 5.04a18.43 18.43 0 0 1-4.36-2.71l5.54-3.949-1.18 6.659zm-9.98.69L32.36 41.8l.53 3.42-13.76 9.82zm3.04-5.98a18.922 18.922 0 0 1-2.71-4.35l6.55-1.04-3.84 5.39zm4.25-5.96l-6.3 1 5.22-3.689 2.7.42-1.62 2.269zm-7.21 1.03c-.63-1.55-1.06-3.18-1.27-4.87l6.69 1.04-5.42 3.83zm-1.99 12.88l7.1-5.06a19.551 19.551 0 0 0 10.3 4.43L35.95 65c-7.3-.25-13.87-3.24-18.73-7.99zm15.23-16l-24.51-3.8h28.31l-3.8 3.8zm4.16-4.66l-3.82-3.84 1.14-7.33.01-.01-.01-.01 2.68-17.24v28.43zm28.419-.3l-8.619-1.38a19.5 19.5 0 0 0-4.42-10.34l5.039-7.13c4.782 4.88 7.782 11.5 8 18.85zM44.1 20.22L43 26.41l-2.18 1.54-.42-2.63 3.7-5.1zm-3.81 4.4l-1.069-6.71c1.729.21 3.409.649 4.989 1.31l-3.92 5.4zm4.46-5.17a19.71 19.71 0 0 1 4.311 2.67L43.58 26l1.17-6.55zm10.01-.75L41.471 31.99l-.561-3.49 13.85-9.8zm-3.071 6.05c1.09 1.33 1.99 2.79 2.681 4.33l-6.56 1.15 3.879-5.48zM47.4 30.81l6.289-1.1-5.199 3.7-2.631-.42 1.541-2.18zm7.22-1.15c.64 1.57 1.069 3.22 1.28 4.93l-6.7-1.07 5.42-3.86zm1.989-12.88l-7.129 5.04a19.506 19.506 0 0 0-10.34-4.42l-1.381-8.62c7.35.22 13.971 3.22 18.85 8zM37.11 66.07V37.56l3.91 3.881-3.91 24.629zm16.579-21.98l-6.279-.99-1.62-2.27 2.601-.4 5.298 3.66zm-4.58-3.77l6.781-1.061a19.24 19.24 0 0 1-1.271 4.87l-5.51-3.809zm5.261 4.39a19.265 19.265 0 0 1-2.7 4.35l-3.85-5.39 6.55 1.04zm.73 10.02L41.74 41.46l3.5-.54 9.86 13.81zm-6.039-3.06a19.287 19.287 0 0 1-4.33 2.68l-1.17-6.58 5.5 3.9zm-6.081-4.31l1.119 6.33-3.709-5.12.43-2.73 2.16 1.52zm1.161 7.24a18.704 18.704 0 0 1-4.91 1.271l1.049-6.601 3.861 5.33zM37.78 65l1.371-8.61c3.82-.43 7.379-1.96 10.33-4.42l7.129 5.04A28.042 28.042 0 0 1 37.78 65zm19.249-8.42l-5.059-7.09a19.546 19.546 0 0 0 4.43-10.311l8.619-1.33a28 28 0 0 1-7.99 18.731zM37.46 36.71l3.92-3.93 24.601 3.93H37.46z"/><circle cx="4.64" cy="23.09" r=".67"/><path d="M4.64 49.9c-.37 0-.67.31-.67.67a.67.67 0 0 0 1.34 0c0-.36-.3-.67-.67-.67zM1.88 35.86a1.029 1.029 0 1 0 0 2.059c.56 0 1.03-.46 1.03-1.03 0-.559-.47-1.029-1.03-1.029z"/></g><text font-family=".AppleSystemUIFont" font-size="18" transform="translate(0 -4)"><tspan x="53" y="17">C</tspan></text><text font-family=".AppleSystemUIFont" font-size="18" transform="translate(0 -4)"><tspan x="53" y="127">Ю</tspan></text><text font-family=".AppleSystemUIFont" font-size="18" transform="translate(0 -4)"><tspan x="0" y="72">З</tspan></text><text font-family=".AppleSystemUIFont" font-size="18" transform="translate(0 -4)"><tspan x="110" y="72">В</tspan></text></g></svg>

<?xml version="1.0" encoding="UTF-8"?>
<svg width="121px" height="124px" viewBox="0 0 121 124" version="1.1" xmlns="http://www.w3.org/2000/svg" xmlns:xlink="http://www.w3.org/1999/xlink">
    <!-- Generator: Sketch 41.2 (35397) - http://www.bohemiancoding.com/sketch -->
    <title>Group 10</title>
    <desc>Created with Sketch.</desc>
    <defs></defs>
    <g id="4.-Объект:-Выбор-квартиры" stroke="none" stroke-width="1" fill="none" fill-rule="evenodd">
        <g id="Объекты-[Desktop-1600]" transform="translate(-1667.000000, -883.000000)" fill="#000000">
            <g id="Group-10" transform="translate(1667.000000, 879.000000)">
                <g id="noun_263915_cc" transform="translate(26.000000, 23.000000)">
                    <g id="Group">
                        <g>
                            <path d="M72.08,35.86 C71.51,35.86 71.05,36.33 71.05,36.889 C71.05,37.459 71.51,37.919 72.08,37.919 C72.641,37.919 73.109,37.459 73.109,36.889 C73.109,36.33 72.641,35.86 72.08,35.86 Z" id="Shape"></path>
                            <ellipse id="Oval" cx="69.32" cy="23.09" rx="0.67" ry="0.67"></ellipse>
                            <path d="M69.32,49.9 C68.95,49.9 68.65,50.21 68.65,50.57 C68.65,50.94 68.95,51.24 69.32,51.24 C69.689,51.24 69.99,50.94 69.99,50.57 C69.99,50.21 69.689,49.9 69.32,49.9 Z" id="Shape"></path>
                            <path d="M61.76,13.08 C62.321,13.08 62.79,12.62 62.79,12.05 C62.79,11.49 62.32,11.02 61.76,11.02 C61.19,11.02 60.731,11.491 60.731,12.05 C60.73,12.62 61.189,13.08 61.76,13.08 Z" id="Shape"></path>
                            <path d="M61.76,60.71 C61.19,60.71 60.731,61.17 60.731,61.731 C60.731,62.3 61.19,62.76 61.76,62.76 C62.321,62.76 62.79,62.3 62.79,61.731 C62.79,61.17 62.32,60.71 61.76,60.71 Z" id="Shape"></path>
                            <path d="M50.721,5.28 C51.09,5.28 51.391,4.98 51.391,4.61 C51.391,4.25 51.09,3.94 50.721,3.94 C50.35,3.94 50.05,4.25 50.05,4.61 C50.05,4.98 50.35,5.28 50.721,5.28 Z" id="Shape"></path>
                            <circle id="Oval" cx="50.721" cy="69.17" r="0.67"></circle>
                            <path d="M36.92,2.76 C37.48,2.76 37.95,2.3 37.95,1.731 C37.95,1.17 37.48,0.71 36.92,0.71 C36.35,0.71 35.89,1.17 35.89,1.731 C35.89,2.3 36.35,2.76 36.92,2.76 Z" id="Shape"></path>
                            <path d="M36.92,70.9 C36.35,70.9 35.89,71.37 35.89,71.929 C35.89,72.499 36.35,72.959 36.92,72.959 C37.48,72.959 37.95,72.499 37.95,71.929 C37.95,71.37 37.48,70.9 36.92,70.9 Z" id="Shape"></path>
                            <path d="M23.24,5.28 C23.61,5.28 23.91,4.98 23.91,4.61 C23.91,4.25 23.61,3.94 23.24,3.94 C22.87,3.94 22.57,4.25 22.57,4.61 C22.57,4.98 22.87,5.28 23.24,5.28 Z" id="Shape"></path>
                            <ellipse id="Oval" cx="23.24" cy="69.17" rx="0.67" ry="0.67"></ellipse>
                            <path d="M12.2,13.08 C12.76,13.08 13.23,12.62 13.23,12.05 C13.23,11.49 12.76,11.02 12.2,11.02 C11.63,11.02 11.17,11.491 11.17,12.05 C11.17,12.62 11.63,13.08 12.2,13.08 Z" id="Shape"></path>
                            <path d="M12.2,60.71 C11.63,60.71 11.17,61.17 11.17,61.731 C11.17,62.3 11.63,62.76 12.2,62.76 C12.76,62.76 13.23,62.3 13.23,61.731 C13.23,61.17 12.76,60.71 12.2,60.71 Z" id="Shape"></path>
                            <path d="M69.391,36.96 C69.391,36.83 69.3,36.731 69.18,36.71 L65.53,36.13 C65.331,28.52 62.201,21.68 57.221,16.68 C57.21,16.66 57.21,16.63 57.19,16.62 C57.18,16.599 57.151,16.599 57.141,16.59 C52.13,11.61 45.29,8.48 37.68,8.28 L37.1,4.63 C37.08,4.51 36.98,4.42 36.86,4.42 L36.85,4.42 C36.73,4.42 36.63,4.51 36.61,4.64 L36.04,8.281 C28.48,8.51 21.67,11.631 16.7,16.591 C16.68,16.601 16.66,16.601 16.64,16.621 C16.62,16.631 16.62,16.661 16.61,16.681 C11.63,21.681 8.5,28.521 8.3,36.131 L4.66,36.711 C4.53,36.732 4.45,36.831 4.45,36.961 C4.45,37.081 4.54,37.181 4.66,37.201 L8.3,37.77 C8.53,45.331 11.65,52.13 16.61,57.111 C16.62,57.131 16.62,57.151 16.64,57.171 C16.65,57.192 16.68,57.181 16.69,57.192 C21.67,62.152 28.47,65.271 36.03,65.502 L36.61,69.272 C36.63,69.392 36.73,69.483 36.85,69.483 L36.86,69.483 C36.98,69.483 37.08,69.392 37.1,69.272 L37.7,65.512 C45.3,65.302 52.14,62.172 57.14,57.193 C57.16,57.182 57.179,57.193 57.189,57.172 C57.21,57.152 57.21,57.132 57.22,57.112 C62.179,52.132 65.299,45.332 65.529,37.771 L69.17,37.2 C69.3,37.18 69.391,37.08 69.391,36.96 Z M35.96,8.79 L34.63,17.41 C30.82,17.849 27.27,19.38 24.32,21.84 L17.22,16.78 C22.08,12.03 28.66,9.03 35.96,8.79 Z M20.12,29.71 L26.43,30.81 L27.98,32.991 L25.24,33.421 L20.12,29.71 Z M24.54,33.54 L17.93,34.59 C18.14,32.88 18.57,31.231 19.21,29.67 L24.54,33.54 Z M19.46,29.08 C20.15,27.54 21.05,26.08 22.14,24.75 L26.02,30.23 L19.46,29.08 Z M18.75,19.1 L31.93,32.36 L28.53,32.9 L18.75,19.1 Z M24.75,22.15 C26.08,21.049 27.54,20.139 29.09,19.45 L30.26,26.08 L24.75,22.15 Z M30.84,26.49 L29.73,20.219 L33.4,25.28 L32.98,28.019 L30.84,26.49 Z M29.62,19.22 C31.19,18.571 32.84,18.13 34.55,17.92 L33.51,24.58 L29.62,19.22 Z M16.8,17.21 L21.84,24.33 C19.38,27.28 17.85,30.85 17.42,34.67 L8.8,36.05 C9.02,28.7 12.03,22.08 16.8,17.21 Z M8.81,37.85 L17.43,39.18 C17.87,42.991 19.4,46.54 21.86,49.491 L16.8,56.581 C12.05,51.73 9.05,45.15 8.81,37.85 Z M29.73,53.69 L30.86,47.32 L30.82,47.309 L32.98,45.769 L33.42,48.61 L29.73,53.69 Z M33.52,49.31 L34.54,55.861 C32.86,55.661 31.23,55.231 29.69,54.6 L33.52,49.31 Z M29.11,54.35 C27.55,53.661 26.08,52.75 24.75,51.64 L30.29,47.691 L29.11,54.35 Z M19.13,55.04 L32.36,41.8 L32.89,45.22 L19.13,55.04 Z M22.17,49.06 C21.06,47.731 20.16,46.26 19.46,44.71 L26.01,43.67 L22.17,49.06 Z M26.42,43.1 L20.12,44.1 L25.34,40.411 L28.04,40.831 L26.42,43.1 Z M19.21,44.13 C18.58,42.58 18.15,40.95 17.94,39.26 L24.63,40.3 L19.21,44.13 Z M17.22,57.01 L24.32,51.95 C27.26,54.41 30.81,55.929 34.62,56.38 L35.95,65 C28.65,64.75 22.08,61.76 17.22,57.01 Z M32.45,41.01 L7.94,37.21 L36.25,37.21 L32.45,41.01 Z M36.61,36.35 L32.79,32.51 L33.93,25.18 L33.94,25.17 L33.93,25.16 L36.61,7.92 L36.61,36.35 Z M65.029,36.05 L56.41,34.67 C55.98,30.85 54.45,27.28 51.99,24.33 L57.029,17.2 C61.811,22.08 64.811,28.7 65.029,36.05 Z M44.1,20.22 L43,26.41 L40.82,27.95 L40.4,25.32 L44.1,20.22 Z M40.29,24.62 L39.221,17.91 C40.95,18.12 42.63,18.559 44.21,19.22 L40.29,24.62 Z M44.75,19.45 C46.279,20.139 47.73,21.04 49.061,22.12 L43.58,26 L44.75,19.45 Z M54.76,18.7 L41.471,31.99 L40.91,28.5 L54.76,18.7 Z M51.689,24.75 C52.779,26.08 53.679,27.54 54.37,29.08 L47.81,30.23 L51.689,24.75 Z M47.4,30.81 L53.689,29.71 L48.49,33.41 L45.859,32.99 L47.4,30.81 Z M54.62,29.66 C55.26,31.23 55.689,32.88 55.9,34.59 L49.2,33.52 L54.62,29.66 Z M56.609,16.78 L49.48,21.82 C46.529,19.36 42.959,17.83 39.14,17.4 L37.759,8.78 C45.109,9 51.73,12 56.609,16.78 Z M37.11,66.07 L37.11,37.56 L41.02,41.441 L37.11,66.07 Z M53.689,44.09 L47.41,43.1 L45.79,40.83 L48.391,40.43 L53.689,44.09 Z M49.109,40.32 L55.89,39.259 C55.679,40.949 55.249,42.579 54.619,44.129 L49.109,40.32 Z M54.37,44.71 C53.67,46.26 52.769,47.731 51.67,49.06 L47.82,43.67 L54.37,44.71 Z M55.1,54.73 L41.74,41.46 L45.24,40.92 L55.1,54.73 Z M49.061,51.67 C47.731,52.76 46.27,53.66 44.731,54.35 L43.561,47.77 L49.061,51.67 Z M42.98,47.36 L44.099,53.69 L40.39,48.57 L40.82,45.84 L42.98,47.36 Z M44.141,54.6 C42.58,55.241 40.93,55.67 39.231,55.871 L40.28,49.27 L44.141,54.6 Z M37.78,65 L39.151,56.39 C42.971,55.96 46.53,54.43 49.481,51.97 L56.61,57.01 C51.73,61.78 45.12,64.78 37.78,65 Z M57.029,56.58 L51.97,49.49 C54.429,46.54 55.959,42.99 56.4,39.179 L65.019,37.849 C64.779,45.15 61.779,51.73 57.029,56.58 Z M37.46,36.71 L41.38,32.78 L65.981,36.71 L37.46,36.71 Z" id="Shape"></path>
                            <circle id="Oval" cx="4.64" cy="23.09" r="0.67"></circle>
                            <path d="M4.64,49.9 C4.27,49.9 3.97,50.21 3.97,50.57 C3.97,50.94 4.27,51.24 4.64,51.24 C5.01,51.24 5.31,50.94 5.31,50.57 C5.31,50.21 5.01,49.9 4.64,49.9 Z" id="Shape"></path>
                            <path d="M1.88,35.86 C1.31,35.86 0.85,36.33 0.85,36.889 C0.85,37.459 1.31,37.919 1.88,37.919 C2.44,37.919 2.91,37.459 2.91,36.889 C2.91,36.33 2.44,35.86 1.88,35.86 Z" id="Shape"></path>
                        </g>
                    </g>
                </g>
                <text id="C" font-family=".AppleSystemUIFont" font-size="18" font-weight="normal">
                    <tspan x="53" y="17">C</tspan>
                </text>
                <text id="Ю" font-family=".AppleSystemUIFont" font-size="18" font-weight="normal">
                    <tspan x="53" y="127">Ю</tspan>
                </text>
                <text id="З" font-family=".AppleSystemUIFont" font-size="18" font-weight="normal">
                    <tspan x="0" y="72">З</tspan>
                </text>
                <text id="В" font-family=".AppleSystemUIFont" font-size="18" font-weight="normal">
                    <tspan x="110" y="72">В</tspan>
                </text>
            </g>
        </g>
    </g>
</svg>
